client/assets/img/logo-concorda.svg

<?xml version="1.0" encoding="UTF-8" standalone="no"?>
<svg width="292px" height="292px" viewBox="0 0 292 292" version="1.1" xmlns="http://www.w3.org/2000/svg" xmlns:xlink="http://www.w3.org/1999/xlink" xmlns:sketch="http://www.bohemiancoding.com/sketch/ns">
    <!-- Generator: Sketch 3.4.4 (17249) - http://www.bohemiancoding.com/sketch -->
    <title>Untitled 2</title>
    <desc>Created with Sketch.</desc>
    <defs>
        <circle id="path-1" cx="138.009995" cy="138.009995" r="138.009995"></circle>
    </defs>
    <g id="Page-1" stroke="none" stroke-width="1" fill="none" fill-rule="evenodd" sketch:type="MSPage">
        <g id="logo-concorda" sketch:type="MSLayerGroup" transform="translate(8.000000, 8.000000)">
            <circle id="Oval" stroke="#FFFFFF" stroke-width="15" sketch:type="MSShapeGroup" cx="138.009995" cy="138.009995" r="138.009995"></circle>
            <mask id="mask-2" sketch:name="Mask" fill="white">
                <use xlink:href="#path-1"></use>
            </mask>
            <use id="Mask" opacity="0" fill="#FFFFFF" sketch:type="MSShapeGroup" xlink:href="#path-1"></use>
            <path d="M228,228.75 C228,191.25 160.5,198.75 160.5,168.75 C160.5,168.75 183,146.25 183,105 C183,80.2083333 162.791667,60 138,60 C113.208333,60 93,80.2083333 93,105 C93,146.25 115.5,168.75 115.5,168.75 C115.5,198.75 48,191.25 48,228.75 L48,236.25 C48,238.333333 49.6666667,242 51.75,242 C51.75,242 68.1521542,255.111117 87.6182657,263.454497 C104.05875,270.501061 122.684748,273 135.460938,273 C150.92879,273 174.480559,269.532693 193.441626,261.448565 C210.760868,254.064436 224.25,242 224.25,242 C226.333333,242 228,238.333333 228,236.25 L228,228.75 Z" id="user" fill="#FFFFFF" sketch:type="MSShapeGroup" mask="url(#mask-2)"></path>
            <path d="M283,231.875 C283,204.791667 234.25,210.208333 234.25,188.541667 C234.25,188.541667 250.5,172.291667 250.5,142.5 C250.5,124.594907 235.905093,110 218,110 C200.094907,110 185.5,124.594907 185.5,142.5 C185.5,172.291667 201.75,188.541667 201.75,188.541667 C201.75,210.208333 153,204.791667 153,231.875 L153,237.291667 C153,238.796296 154.203704,240 155.708333,240 L280.291667,240 C281.796296,240 283,238.796296 283,237.291667 L283,231.875 Z" id="user" fill="#FFFFFF" sketch:type="MSShapeGroup" mask="url(#mask-2)"></path>
            <path d="M123,231.875 C123,204.791667 74.25,210.208333 74.25,188.541667 C74.25,188.541667 90.5,172.291667 90.5,142.5 C90.5,124.594907 75.9050926,110 58,110 C40.0949074,110 25.5,124.594907 25.5,142.5 C25.5,172.291667 41.75,188.541667 41.75,188.541667 C41.75,210.208333 -7,204.791667 -7,231.875 L-7,237.291667 C-7,238.796296 -5.7962963,240 -4.29166667,240 L120.291667,240 C121.796296,240 123,238.796296 123,237.291667 L123,231.875 Z" id="user" fill="#FFFFFF" sketch:type="MSShapeGroup" mask="url(#mask-2)"></path>
        </g>
    </g>
</svg>

<svg width="292" height="292" viewBox="0 0 292 292" xmlns="http://www.w3.org/2000/svg" xmlns:xlink="http://www.w3.org/1999/xlink"><title>Untitled 2</title><defs><circle id="a" cx="138.01" cy="138.01" r="138.01"/></defs><g transform="translate(8 8)" fill="none" fill-rule="evenodd"><circle stroke="#FFF" stroke-width="15" cx="138.01" cy="138.01" r="138.01"/><mask id="b" fill="#fff"><use xlink:href="#a"/></mask><path d="M228 228.75c0-37.5-67.5-30-67.5-60 0 0 22.5-22.5 22.5-63.75 0-24.792-20.208-45-45-45s-45 20.208-45 45c0 41.25 22.5 63.75 22.5 63.75 0 30-67.5 22.5-67.5 60v7.5c0 2.083 1.667 5.75 3.75 5.75 0 0 16.402 13.11 35.868 21.454C104.058 270.5 122.685 273 135.46 273c15.47 0 39.02-3.467 57.982-11.55 17.32-7.386 30.808-19.45 30.808-19.45 2.083 0 3.75-3.667 3.75-5.75v-7.5z" fill="#FFF" mask="url(#b)"/><path d="M283 231.875c0-27.083-48.75-21.667-48.75-43.333 0 0 16.25-16.25 16.25-46.042 0-17.905-14.595-32.5-32.5-32.5s-32.5 14.595-32.5 32.5c0 29.792 16.25 46.042 16.25 46.042 0 21.666-48.75 16.25-48.75 43.333v5.417c0 1.504 1.204 2.708 2.708 2.708h124.584c1.504 0 2.708-1.204 2.708-2.708v-5.417zM123 231.875c0-27.083-48.75-21.667-48.75-43.333 0 0 16.25-16.25 16.25-46.042 0-17.905-14.595-32.5-32.5-32.5s-32.5 14.595-32.5 32.5c0 29.792 16.25 46.042 16.25 46.042 0 21.666-48.75 16.25-48.75 43.333v5.417C-7 238.796-5.796 240-4.292 240h124.584c1.504 0 2.708-1.204 2.708-2.708v-5.417z" fill="#FFF" mask="url(#b)"/></g></svg>
